boxicons/svg/logos/bxl-algolia.svg

<svg xmlns="http://www.w3.org/2000/svg" width="24" height="24" viewBox="0 0 24 24"><path d="M12.177 9.059a3.582 3.582 0 0 0-3.576 3.584 3.584 3.584 0 0 0 3.576 3.585 3.578 3.578 0 0 0 3.575-3.585 3.582 3.582 0 0 0-3.575-3.584zm2.518 2.268-2.366 1.229c-.07.039-.153-.017-.153-.093V9.791h.001c0-.06.054-.104.109-.104a2.943 2.943 0 0 1 2.452 1.492c.028.055.011.121-.043.148z"/><path d="M18.578 3H5.361A2.363 2.363 0 0 0 3 5.366v13.277a2.368 2.368 0 0 0 2.361 2.371h13.217a2.367 2.367 0 0 0 2.361-2.372V5.372A2.368 2.368 0 0 0 18.578 3zm-8.112 3.404a.78.78 0 0 1 .779-.781h1.815c.43 0 .778.35.778.781v.618a.106.106 0 0 1-.131.104 5.677 5.677 0 0 0-3.106.017c-.07.016-.136-.033-.136-.104v-.635zM7.08 8.993a.78.78 0 0 1 .001-1.103l.371-.371.002-.002a.776.776 0 0 1 1.099.002l.31.311c.043.05.038.127-.017.159a5.82 5.82 0 0 0-1.296 1.3c-.044.049-.114.06-.163.011l-.306-.306-.001-.001zm5.097 8.737a5.078 5.078 0 0 1-5.074-5.087c0-2.813 2.272-5.092 5.074-5.092a5.074 5.074 0 0 1 5.074 5.086c0 2.815-2.272 5.093-5.074 5.093z"/></svg>

<svg xmlns="http://www.w3.org/2000/svg" width="24" height="24" viewBox="0 0 24 24"><path d="M12.177,9.059c-1.973,0-3.576,1.606-3.576,3.584c0,1.978,1.604,3.585,3.576,3.585c1.979,0,3.575-1.607,3.575-3.585 C15.752,10.666,14.15,9.059,12.177,9.059z M14.695,11.327l-2.366,1.229c-0.07,0.039-0.153-0.017-0.153-0.093V9.791h0.001 c0-0.06,0.054-0.104,0.109-0.104c1.021,0.038,1.949,0.603,2.452,1.492C14.766,11.234,14.749,11.3,14.695,11.327z"/><path d="M18.578,3H5.361C4.055,3,3,4.061,3,5.366v13.277c0,1.311,1.062,2.371,2.361,2.371h13.217c1.306,0,2.361-1.065,2.361-2.372 V5.372C20.939,4.061,19.878,3,18.578,3z M10.466,6.404c-0.001-0.431,0.349-0.781,0.779-0.781h1.815c0.43,0,0.778,0.35,0.778,0.781 v0.618c0,0.009-0.001,0.018-0.003,0.027c-0.014,0.056-0.071,0.091-0.128,0.077c-0.497-0.137-1.011-0.207-1.525-0.207 c-0.535,0-1.067,0.075-1.581,0.224c-0.07,0.016-0.136-0.033-0.136-0.104V6.404z M7.08,8.993C6.775,8.688,6.776,8.194,7.081,7.89 l0.371-0.371c0.001-0.001,0.002-0.001,0.002-0.002C7.759,7.213,8.25,7.215,8.553,7.519L8.863,7.83 c0.043,0.05,0.038,0.127-0.017,0.159C8.597,8.169,8.361,8.371,8.144,8.59C7.928,8.807,7.729,9.041,7.55,9.289 C7.506,9.338,7.436,9.349,7.387,9.3L7.081,8.994C7.081,8.994,7.081,8.993,7.08,8.993z M12.177,17.73 c-2.802,0-5.074-2.273-5.074-5.087c0-2.813,2.272-5.092,5.074-5.092c2.807,0,5.074,2.272,5.074,5.086 C17.251,15.452,14.979,17.73,12.177,17.73z"/></svg>
